public/assets/leading-icon.svg

<svg width="75" height="75" viewBox="0 0 75 75" fill="none" xmlns="http://www.w3.org/2000/svg">
<g clip-path="url(#clip0_59_1707)">
<path d="M38.88 0.430137V0.390137H0V40.4501H0.13C1.63 59.5701 17.61 74.6201 37.11 74.6201C57.61 74.6201 74.22 58.0001 74.22 37.5101C74.22 17.0201 58.55 1.36014 38.88 0.430137Z" fill="#A7C553"/>
<path d="M37.22 13.75L44.89 28.63L60.53 31.81L49.63 44.19L51.63 61.04L37.22 53.81L22.82 61.04L24.81 44.19L13.91 31.81L29.55 28.63L37.22 13.75Z" fill="#006D68"/>
<path d="M37.07 40.9001L13.69 31.8701L37.47 39.7801C38.22 40.0301 37.81 41.1801 37.07 40.9001Z" fill="#A7C553"/>
<path d="M22.77 61.25L36.79 40C36.97 39.73 37.34 39.65 37.61 39.83C37.89 40.01 37.96 40.4 37.76 40.67L22.77 61.24V61.25Z" fill="#A7C553"/>
<path d="M37.22 13.75L44.89 28.63L60.53 31.81L37.22 39.89V13.75Z" fill="#00544F"/>
<path d="M37.22 13.75L44.89 28.63L60.53 31.81L49.63 44.19L51.63 61.04L37.22 53.81L22.82 61.04L24.81 44.19L13.91 31.81L29.55 28.63L37.22 13.75Z" stroke="white" stroke-width="0.99" stroke-linecap="round" stroke-linejoin="round"/>
</g>
<defs>
<clipPath id="clip0_59_1707">
<rect width="75" height="75" fill="white"/>
</clipPath>
</defs>
</svg>

<svg xmlns="http://www.w3.org/2000/svg" width="75" height="75" fill="none" viewBox="0 0 75 75"><g clip-path="url(#a)"><path fill="#a7c553" d="M38.88.43V.39H0v40.06h.13c1.5 19.12 17.48 34.17 36.98 34.17 20.5 0 37.11-16.62 37.11-37.11S58.55 1.36 38.88.43"/><path fill="#006d68" d="m37.22 13.75 7.67 14.88 15.64 3.18-10.9 12.38 2 16.85-14.41-7.23-14.4 7.23 1.99-16.85-10.9-12.38 15.64-3.18z"/><path fill="#a7c553" d="m37.07 40.9-23.38-9.03 23.78 7.91c.75.25.34 1.4-.4 1.12"/><path fill="#a7c553" d="M22.77 61.25 36.79 40a.589.589 0 1 1 .97.67L22.77 61.24z"/><path fill="#00544f" d="m37.22 13.75 7.67 14.88 15.64 3.18-23.31 8.08z"/><path stroke="#fff" stroke-linecap="round" stroke-linejoin="round" stroke-width=".99" d="m37.22 13.75 7.67 14.88 15.64 3.18-10.9 12.38 2 16.85-14.41-7.23-14.4 7.23 1.99-16.85-10.9-12.38 15.64-3.18z"/></g><defs><clipPath id="a"><path fill="#fff" d="M0 0h75v75H0z"/></clipPath></defs></svg>
